public/svgs/thin/plug.svg

<svg xmlns="http://www.w3.org/2000/svg" viewBox="0 0 384 512"><!-- Font Awesome Pro 6.0.0-alpha2 by @fontawesome - https://fontawesome.com License - https://fontawesome.com/license (Commercial License) --><path d="M376 144H8C3.582 144 0 147.582 0 152S3.582 160 8 160H40V240C40 321.07 103.971 386.934 184 391.191V504C184 508.418 187.582 512 192 512S200 508.418 200 504V391.191C280.029 386.934 344 321.07 344 240V160H376C380.418 160 384 156.418 384 152S380.418 144 376 144ZM328 240C328 315 266.984 376 192 376S56 315 56 240V160H328V240ZM96 8C96 3.582 92.418 0 88 0S80 3.582 80 8V112H96V8ZM288 8C288 3.582 284.418 0 280 0S272 3.582 272 8V112H288V8Z"/></svg>

<svg xmlns="http://www.w3.org/2000/svg" viewBox="0 0 384 512"><!--! Font Awesome Pro 6.5.1 by @fontawesome - https://fontawesome.com License - https://fontawesome.com/license (Commercial License) Copyright 2023 Fonticons, Inc. --><path d="M112 8c0-4.4-3.6-8-8-8s-8 3.6-8 8V112h16V8zM288 8c0-4.4-3.6-8-8-8s-8 3.6-8 8V112h16V8zM8 144c-4.4 0-8 3.6-8 8s3.6 8 8 8H40v80c0 81.3 63.8 147.6 144 151.8V504c0 4.4 3.6 8 8 8s8-3.6 8-8V391.8c80.2-4.2 144-70.5 144-151.8V160h32c4.4 0 8-3.6 8-8s-3.6-8-8-8H344 328 56 40 8zM192 376c-75.1 0-136-60.9-136-136V160H328v80c0 75.1-60.9 136-136 136z"/></svg>
